X:1
T:Title
%%score { ( 1 3 ) | 2 }
L:1/8
Q:1/4=104
M:4/4
K:Eb
V:1 treble nm="Grand Piano"
V:3 treble 
V:2 bass 
V:1
 G>F E>G [GB]2 [GB]2 | [_Gc]2 [=GB]6 | e>d e>c [GB]2 [EG]2 | [DF]2 [Ac]2 [GB]2 [FA]2 | %4
w: C.~Austin~Miles * * * * *||||
 [B,EG]>[A,EF] [G,E]>[B,EG] [EGB]2 [B,GB]2 | [_Gc]2 [=GB]4 [_Gc]2 | d>B =A>G F2 c2 | %7
w: |||
 [B,B]2- [B,-FB-]2 [B,-EB-]2 [B,DB]2 | E2 G2 B2 G[GB] | [Ac]2 [Ac]2 [GB]4 | %10
w: |||
 [Ge]2 [Ge]2 [Ge] [GB]2 [GB] |[M:3/4] [Ac][GB] [EG]2 [DF]2 |[M:1/4] [DG][DF] | %13
w: |||
[M:4/4] E2 EG [GB]2 [GB]2 | [Ac]2 [Ac]2 [GB]3 [_Gc] | d2 B2 F2 c2 | [DB]2 [Ac]2 [GB][FA][EG][DF] | %17
w: ||||
 E2 G2 B2 G[GB] | [Ac]2 [Ac]2 [GB]4 | [Ge]2 [Ge]2 [Ge] [GB]2 [GB] |[M:3/4] [Ac][GB] [EG]2 [DF]2 | %21
w: ||||
[M:1/4] [DG][DF] |[M:4/4] E2 EG [GB]2 [GB]2 |[M:5/4] c2 B2 e3 c3 |[M:4/4] B>B B>c [EG]2 [DF]2 | %25
w: ||||
 E6 z2 |] %26
w: |
V:2
 [E,B,E]>[E,A,E] [E,G,]>[E,B,E] [E,E]2 [E,E]2 | [E,E]2 [E,E]6 | %2
 [A,CA]>[A,B,A] [A,CA]>[A,EA][K:bass] [E,E]2 [E,B,]2 | [B,,B,]2 [B,,B,]2 C,2 D,2 | %4
 E,>E, E,>E, E,2 E,2 | [E,=A,]2 [E,B,]4 [E,B,]2 | %6
 [F,B,F]>[F,B,D] [F,CE]>[F,B,E] [F,=A,E]2 [F,A,E]2 | B,,2 A,2 G,2 F,2 | %8
 [E,G,]2 [E,B,E]2 [E,G,E]2 [E,B,E][E,E] | [A,E]2 [A,E]2 [E,E]4 | %10
 [E,B,]2 [E,B,]2 [E,B,] [E,E]2 [E,E] |[M:3/4] [E,E]2 [E,B,]2 [B,,B,]2 |[M:1/4] [B,,B,][B,,A,] | %13
[M:4/4] [E,G,]2 [E,G,][E,B,E] [E,E]2 [E,E]2 | [A,E]2 [A,E]2 [E,E]3 [E,B,] | %15
 [F,B,F]2 [F,DF]2 [F,CE]2 [F,=A,E]2 | [B,,A,]2 [B,,F,]2 [B,,B,][B,,B,][B,,B,][B,,A,] | %17
 [E,G,]2 [E,B,E]2 [E,G,E]2 [E,B,E][E,E] | [A,E]2 [A,E]2 [E,E]4 | %19
 [E,B,]2 [E,B,]2 [E,B,] [E,E]2 [E,E] |[M:3/4] [E,E]2 [E,B,]2 [B,,B,]2 |[M:1/4] [B,,B,][B,,A,] | %22
[M:4/4] [E,G,]2 [E,G,][E,B,E] [E,E]2 [E,E]2 |[M:5/4][K:treble] [A,EA]2 [B,DA]2 [CEG]3 [=A,E_G]3 | %24
[M:4/4] [B,EG]>[B,EG] [B,EG]>[B,A][K:bass] [B,,B,]2 [B,,A,]2 | [E,G,]6 z2 |] %26
V:3
 x8 | x8 | x8 | z4 B,4 | x8 | x8 | x8 | D2 z2 z4 | x8 | x8 | x8 |[M:3/4] x6 |[M:1/4] x2 | %13
[M:4/4] x8 | x8 | x8 | x8 | x8 | x8 | x8 |[M:3/4] x6 |[M:1/4] x2 |[M:4/4] x8 |[M:5/4] x10 | %24
[M:4/4] x8 | x8 |] %26

